polaris-icons/icons/newicons/CapturePaymentMinor.svg

<svg width="20" height="20" viewBox="0 0 20 20" fill="none" xmlns="http://www.w3.org/2000/svg">
<path d="M10.75 3C10.75 2.58579 10.4142 2.25 10 2.25C9.58579 2.25 9.25 2.58579 9.25 3V5.1636L8.53557 4.43484C8.2456 4.13905 7.77075 4.13433 7.47496 4.4243C7.17918 4.71427 7.17446 5.18912 7.46443 5.48491L9.46443 7.52504C9.60549 7.66892 9.79851 7.75 10 7.75C10.2015 7.75 10.3945 7.66892 10.5356 7.52504L12.5356 5.48491C12.8255 5.18912 12.8208 4.71427 12.525 4.4243C12.2292 4.13433 11.7544 4.13905 11.4644 4.43484L10.75 5.1636V3Z" fill="black"/>
<path d="M12.928 9.28886C13.4608 8.16414 14.7973 7.67489 15.9303 8.18988C17.0692 8.70756 17.5778 10.0466 17.0697 11.1898L15.2132 15.3668C14.7719 16.3599 13.787 16.9999 12.7003 16.9999H8C7.58579 16.9999 7.25 16.6642 7.25 16.2499C7.25 15.8357 7.58579 15.4999 8 15.4999H12.7003C13.1942 15.4999 13.6419 15.209 13.8425 14.7576L15.699 10.5806C15.8726 10.1899 15.6988 9.73234 15.3096 9.55543C14.9224 9.37944 14.4657 9.54663 14.2836 9.93099L12.9487 12.7491C12.6592 13.3603 12.0435 13.7499 11.3672 13.7499H9.51568L9.50001 13.75H8.00001C7.6865 13.75 7.41793 13.5576 7.30586 13.2845C7.28374 13.2306 7.26771 13.1735 7.25864 13.1142C7.25295 13.0769 7.25 13.0388 7.25 12.9999C7.25 12.5857 7.58579 12.2499 8 12.2499H9.50906C9.9191 12.2451 10.25 11.9112 10.25 11.5C10.25 11.0858 9.91423 10.75 9.50001 10.75H7.07377C5.96324 10.75 5.0188 11.5603 4.84993 12.6579L4.24129 16.614C4.17831 17.0234 3.79537 17.3043 3.38597 17.2413C2.97657 17.1783 2.69575 16.7954 2.75874 16.386L3.36738 12.4298C3.64882 10.6004 5.22288 9.25 7.07377 9.25H9.50001C10.7427 9.25 11.75 10.2574 11.75 11.5C11.75 11.6103 11.7421 11.7188 11.7267 11.8249L12.928 9.28886Z" fill="black"/>
</svg>

<svg viewBox="0 0 20 20" fill="none" xmlns="http://www.w3.org/2000/svg"><path d="M10.75 3a.75.75 0 0 0-1.5 0v2.164l-.714-.73a.75.75 0 1 0-1.072 1.05l2 2.041a.75.75 0 0 0 1.072 0l2-2.04a.75.75 0 0 0-1.072-1.05l-.714.729v-2.164Z" fill="#000"/><path d="M12.928 9.289a2.279 2.279 0 0 1 4.142 1.9l-1.857 4.178a2.75 2.75 0 0 1-2.513 1.633h-4.7a.75.75 0 1 1 0-1.5h4.7c.494 0 .942-.291 1.143-.742l1.856-4.177a.779.779 0 0 0-1.415-.65l-1.335 2.818c-.29.611-.905 1-1.582 1h-1.851l-.016.001h-1.5a.75.75 0 1 1 0-1.5h1.51a.75.75 0 0 0-.01-1.5h-2.426a2.25 2.25 0 0 0-2.224 1.908l-.609 3.956a.75.75 0 0 1-1.482-.228l.608-3.956a3.75 3.75 0 0 1 3.707-3.18h2.426a2.25 2.25 0 0 1 2.227 2.575l1.201-2.536Z" fill="#000"/></svg>
